public/assets/images/zoning-+-regulatory.svg

<svg viewBox="0 0 100 100" xmlns="http://www.w3.org/2000/svg"><path d="m30 31.64v-12.64h15.4l.55 11.7 7.43 5.39v15.19h-23.38z" fill="#e7c55b"/><path d="m42.61 34.83c-1.16-1.78-2.49-2.3-3.7-2.23a4.13 4.13 0 0 0 -3.71 2.23c-2.93 4.49 3.71 12.29 3.71 12.29s6.63-7.8 3.7-12.29zm-3.7 3.58a2 2 0 1 1 2-1.95 2 2 0 0 1 -2 1.95z" fill="#d49162"/><path d="m73.52 51.28h-17.75l.3-15.88-8.26-5.4v-11h26.19z" fill="#e7c55b"/><path d="m50.8 78h-20.8v-24.49h24.49v13.49z" fill="#e7c55b"/><path d="m73.41 78h-20.48l4.25-12.4-.59-12.09h16.82z" fill="#98c3d1"/></svg>

<svg xmlns="http://www.w3.org/2000/svg" viewBox="0 0 100 100"><defs><style>.cls-1{isolation:isolate;}.cls-2,.cls-5{fill:#e7c55b;}.cls-2,.cls-3,.cls-4{mix-blend-mode:multiply;}.cls-3{fill:#d49162;}.cls-6{fill:#98c3d1;}</style></defs><title>icons</title><g class="cls-1"><g id="Layer_1" data-name="Layer 1"><polygon class="cls-2" points="30 31.64 30 19 45.4 19 45.95 30.7 53.38 36.09 53.38 51.28 30 51.28 30 31.64"/><path class="cls-3" d="M42.61,34.83c-1.16-1.78-2.49-2.3-3.7-2.23a4.13,4.13,0,0,0-3.71,2.23c-2.93,4.49,3.71,12.29,3.71,12.29S45.54,39.32,42.61,34.83Zm-3.7,3.58a2,2,0,1,1,2-1.95A2,2,0,0,1,38.91,38.41Z"/><g class="cls-4"><path class="cls-5" d="M73.52,51.28H55.77l.3-15.88L47.81,30V19H74Z"/></g><g class="cls-4"><path class="cls-5" d="M50.8,78H30V53.51H54.49V67Z"/></g><g class="cls-4"><path class="cls-6" d="M73.41,78H52.93l4.25-12.4-.59-12.09H73.41Z"/></g></g></g></svg>
